X:1
T:The Meeting Over There
T:The Meeting Over There
T:Rollin Chauncey Ward
T:Sarah C. Goughnour, 1900
T:Public Domain Courtesy of the Cyber Hymnal™
T:Public Domain Courtesy of the Cyber Hymnal™
C:Rollin Chauncey Ward
Z:Public Domain
Z:Courtesy of the Cyber Hymnal™
%%score ( 1 2 ) ( 3 4 )
L:1/8
Q:1/4=100
M:4/4
K:F
V:1 treble 
V:2 treble 
V:3 bass 
V:4 bass 
V:1
 C>[CF] | [FA]2 [FA]2 [FB]2 F2 | [FA]6 F>[FA] | [Ac]2 ([Ac][Bd]) [Ac]2 [FA]2 | [EG]6 C>C | %5
w: 1.~We will|meet our loved ones|dear Where the|crys- tal * riv- ers|flow, If we’re|
w: 2.~For we|read that Je- sus|said: “I will|now pre- * pare a|home, Where the|
w: 3.~Then we’ll|sing for- ev- er-|more, ’Round the|great and * dazz- ling|throne, There all|
 [CF]2 (FG) [FA]2 [Fc]2 | (d4 f2) [Fe]>[Fd] | [Fc]2 (FB) [FA]2 [EG]2 | F6 ||"^Refrain" [FA]>[GB] | %10
w: faith- ful * while we’re|here, * And the|dear Re- * deem- er|know.|There we’ll|
w: wed- ding * feast is|spread, * And the|wea- ry * ones may|come.”||
w: part- ings * will be|o’er, * In our|Fa- ther’s * house at|home.||
 c4- [Ac]>[FA] F>[Bd] | c4 [FA]2 [GB]>[FA] | G4- [EG]>[FA] [GB]>[EG] | A4 [Fc]2 F>F | %14
w: see the crys- tal riv-|er, And the streets|all paved with gold; Then|* we’ll sing re-|
w: ||||
w: ||||
 f4- [Ff]>[Ff] [Fe]>[Fd] | c4 [FA]2 C>[CF] | A7/2 [FB]/ A2 G2 | F6 !fermata!C2 |] %18
w: demp- * tion’s sto- ry,|* Where there’s joy|and love un- told.||
w: ||||
w: ||||
V:2
 C3/2 x/ | x6 F2 | x6 F3/2 x/ | x8 | x6 C>C | x2 C2 x4 | F6 x2 | F2 F2 x4 | F6 || x2 | %10
 (A3/2 A/ A3/2 A/ x/ F3/2) x2 | (A>A A>A) x4 | E3/2 E/ E3/2 E/ x4 | (F>F F>F x/ F3/2) F/ x3/2 | %14
 F3/2 F/ F3/2 F/ x4 | (F>A A>A) x/ C3/2 x2 | (F3/2 F/ F3/2 F>)F(E>C) x/ | C>CD>D x4 |] %18
V:3
 [F,A,]>[F,A,] | [F,C]2 [F,C]2 [B,,D]2 [B,,_D]2 | [F,C]6 [F,A,]>[F,C] | %3
w: ~ ~|~ ~ ~ ~|~ ~ ~|
 [F,F]2 [F,F]2 [F,F]2 [F,C]2 | [C,C]6 [F,A,]>[F,A,] | [F,A,]2 (A,B,) [F,C]2 [F,A,]2 | %6
w: ~ ~ ~ ~|~ ~ ~|~ ~ * ~ ~|
 (B,4 D2) [B,,C]>[D,B,] | [F,A,]2 ([D,B,][B,,D]) [C,C]2 [C,B,]2 | [F,A,]6 || [F,C]>[F,C] | %10
w: ~ * ~ ~|~ ~ * ~ ~|~|There we’ll|
 [F,F]>[F,F] [F,F]>[F,F] [F,F]>[F,C] [F,A,]>[F,F] | [F,F]>[F,F] [F,F]>[F,F] [F,C]2 [E,C]>[F,C] | %12
w: see the crys- tal riv- er, And the|streets all paved with gold, There we’ll|
 [C,C]>[C,C] [C,C]>[C,C] [C,C]>[C,C] [C,C]>[C,C] | [F,C]>[F,C] [F,C]>[F,C] [F,A,]2 [F,A,]>[F,A,] | %14
w: see the crys- tal riv- er, And the|streets all paved with gold. Then we’ll|
 [B,,D]>[B,,D] [B,,D]>[B,,D] [B,,D]>[C,D] [D,C]>[E,B,] | %15
w: sing re- demp- tion’s sto- ry, Where there’s|
 [F,A,]>[F,C] [F,F]>[F,F] [F,C]2 [F,A,]>[F,A,] | %16
w: joy and love un- told, Then we’ll|
 [C,C]>[C,C] [C,C]>[C,C] [C,C]>[C,C] [C,B,]>[C,B,] | %17
w: sing re- demp- tion’s sto- ry, Where there’s|
 [F,A,]>[F,A,] [F,B,]>[F,B,] !fermata![F,A,]2 x2 |] %18
w: joy and love un- told.|
V:4
 x2 | x8 | x8 | x8 | x8 | x2 F,2 x4 | B,,6 x2 | x8 | x6 || x2 | x8 | x8 | x8 | x8 | x8 | x8 | x8 | %17
 x8 |] %18

